public/svg/plus.svg

<svg height="20" viewBox="0 0 20 20" width="20" xmlns="http://www.w3.org/2000/svg"><g fill="#fff"><path d="m10 20c-5.51422117 0-10-4.4857788-10-10 0-5.51422117 4.48577883-10 10-10 5.5142212 0 10 4.48577883 10 10 0 5.5142212-4.4857788 10-10 10zm0-18.62068966c-4.75367653 0-8.62068966 3.86701313-8.62068966 8.62068966 0 4.7536765 3.86701313 8.6206897 8.62068966 8.6206897 4.7536765 0 8.6206897-3.8670132 8.6206897-8.6206897 0-4.75367653-3.8670132-8.62068966-8.6206897-8.62068966z"/><path d="m14.5833333 10.4761905h-9.16666663c-.36142984 0-.65476191-.2133324-.65476191-.4761905 0-.26285807.29333207-.47619048.65476191-.47619048h9.16666663c.3614299 0 .6547619.21333241.6547619.47619048 0 .2628581-.293332.4761905-.6547619.4761905z"/></g></svg>

<?xml version="1.0" encoding="UTF-8"?>
<svg width="20px" height="20px" viewBox="0 0 20 20" version="1.1" xmlns="http://www.w3.org/2000/svg" xmlns:xlink="http://www.w3.org/1999/xlink">
    <title>plus</title>
    <g id="Page-1" stroke="none" stroke-width="1" fill="none" fill-rule="evenodd">
        <g id="profil-user-desktop" transform="translate(-1339.000000, -445.000000)" fill="#FFFFFF" fill-rule="nonzero">
            <g id="plus" transform="translate(1339.000000, 445.000000)">
                <path d="M10,20 C4.48577883,20 0,15.5142212 0,10 C0,4.48577883 4.48577883,0 10,0 C15.5142212,0 20,4.48577883 20,10 C20,15.5142212 15.5142212,20 10,20 Z M10,1.37931034 C5.24632347,1.37931034 1.37931034,5.24632347 1.37931034,10 C1.37931034,14.7536765 5.24632347,18.6206897 10,18.6206897 C14.7536765,18.6206897 18.6206897,14.7536765 18.6206897,10 C18.6206897,5.24632347 14.7536765,1.37931034 10,1.37931034 Z" id="Shape"></path>
                <path d="M14.5833333,10.4761905 L5.41666667,10.4761905 C5.05523683,10.4761905 4.76190476,10.2628581 4.76190476,10 C4.76190476,9.73714193 5.05523683,9.52380952 5.41666667,9.52380952 L14.5833333,9.52380952 C14.9447632,9.52380952 15.2380952,9.73714193 15.2380952,10 C15.2380952,10.2628581 14.9447632,10.4761905 14.5833333,10.4761905 Z" id="Path"></path>
            </g>
        </g>
    </g>
</svg>
